src/lib/packages/icons/src/assets/line/pen.svg

<svg width="24" height="24" viewBox="0 0 24 24" fill="none" xmlns="http://www.w3.org/2000/svg">
<path d="M20.9441 5.28406L18.7161 3.05603C18.1951 2.53603 17.5441 2.249 16.7681 2.25C16.0321 2.251 15.341 2.53906 14.823 3.06006L2.46899 15.471C2.32799 15.6119 2.25 15.802 2.25 16V21C2.25 21.414 2.586 21.75 3 21.75H8C8.198 21.75 8.38905 21.671 8.52905 21.532L20.9399 9.177C21.4609 8.658 21.749 7.96706 21.75 7.23206C21.751 6.49606 21.4651 5.80406 20.9441 5.28406ZM7.68994 20.25H3.75V16.3101L12.7429 7.276L16.7251 11.257L7.68994 20.25ZM19.8821 8.11402L17.7881 10.199L13.801 6.21302L15.886 4.11804C16.122 3.88104 16.436 3.751 16.771 3.75H16.772C17.106 3.75 17.42 3.87997 17.657 4.11597L19.885 6.344C20.121 6.581 20.251 6.89498 20.251 7.22998C20.25 7.56398 20.1191 7.87802 19.8821 8.11402Z" fill="currentColor"/>
</svg>

<svg xmlns="http://www.w3.org/2000/svg" width="24" height="24" fill="none"><path fill="currentColor" d="m20.944 5.284-2.228-2.228a2.667 2.667 0 0 0-1.948-.806 2.73 2.73 0 0 0-1.945.81L2.469 15.471A.747.747 0 0 0 2.25 16v5c0 .414.336.75.75.75h5a.753.753 0 0 0 .529-.218L20.94 9.177a2.73 2.73 0 0 0 .811-1.945 2.728 2.728 0 0 0-.806-1.948ZM7.69 20.25H3.75v-3.94l8.993-9.034 3.982 3.981L7.69 20.25ZM19.882 8.114l-2.094 2.085-3.987-3.986 2.085-2.095c.236-.237.55-.367.885-.368h.001c.334 0 .648.13.885.366l2.228 2.228a1.247 1.247 0 0 1-.003 1.77Z"/></svg>
